X:743
T:Neil Roy
R:Reel
B:The Athole Collection
M:C|
L:1/8
K:G Minor
GABc d2 cB|AFcF dFcF|1 GABc d2 cB|AFcA G/G/G G2:|2 GABc defd|
cAfA G/G/G G2||
Ggga b2ag|fcac fcac|dgga b2ag|fdcA G/G/G G2|Ggga b2ag|
fcfg agfa|gafg dfcf|AFcA G/G/G G2||

